!!!COM:	la Rue, Pierre de
!!!CDT:	~1452///-1518/11/20
!!!OPR:	Missa O gloriosa domina
!!!ONM:	1
!!!OTL:	Kyrie
!!!AGN:	Mass; Kyrie
!!!SCT:	Rue1021a
!!!SCA:	Rue1021a
!!!voices-OPR:	4
!!!voices:	4
**kern	**kern	**kern	**kern
*staff4	*staff3	*staff2	*staff1
*Ivox	*Ivox	*Ivox	*Ivox
*I"Bassus	*I"Tenor	*I"Contra	*I"Discantus
*I'B	*I'T	*I'C	*I'D
*>[A,B,C]	*>[A,B,C]	*>[A,B,C]	*>[A,B,C]
*>A	*>A	*>A	*>A
*clefF4	*clefGv2	*clefG2	*clefG2
*k[]	*k[]	*k[]	*k[]
*M2/1	*M2/1	*M2/1	*M2/1
*met(C)	*met(C)	*met(C)	*met(C)
=1-	=1-	=1-	=1-
!!section: Kyrie I
!!!OMD: Kyrie I
0r	0d	0r	0dd
=2	=2	=2	=2
0r	1d	0r	0a
.	[1A	.	.
=3	=3	=3	=3
0r	2A/]	0r	2cc\
.	2B\	.	2dd\
.	1c	.	1ee
=4	=4	=4	=4
0r	0d	0r	1.ff
.	.	.	[2dd\
=5	=5	=5	=5
0r	1r	0r	2dd\]
.	.	.	4cc\
.	.	.	4b\
.	[1f	.	1a
=6	=6	=6	=6
0r	1f]	0r	2r
.	.	.	1ff
.	1g	.	.
.	.	.	2ee\
=7	=7	=7	=7
0r	2g\	0r	4dd\
.	.	.	4cc\
.	2.a\	.	4b\
.	.	.	4a/
.	.	.	1b
.	4g#i\	.	.
.	2g#i\	.	.
=8	=8	=8	=8
0r	1a	0r	2.cc\
.	.	.	4dd\
.	2a\	.	2ee\
.	[2a\	.	[2ff\
=9	=9	=9	=9
0d	4a\]	1r	2ff\]
.	4g\	.	.
.	4f\	.	2.ee\
.	4e\	.	.
.	1f	[1a	.
.	.	.	4dd\
.	.	.	2dd\
=10	=10	=10	=10
0A	0e	1a]	2ee\
.	.	.	4cc\
.	.	.	4b\
.	.	[1e	4cc\
.	.	.	4dd\
.	.	.	[2ee\
=11	=11	=11	=11
2c\	0r	2e/]	2ee\]
2d\	.	2f/	4dd\
.	.	.	4cc\
1e	.	1g	1b
=12	=12	=12	=12
1.f	0r	1a	0a
.	.	2r	.
[2d\	.	[2f/	.
=13	=13	=13	=13
2d\]	0r	4f/]	0r
.	.	4e/	.
4c\	.	4f/	.
4B\	.	4g/	.
2A\	.	[1a	.
2d\	.	.	.
=14	=14	=14	=14
2c\	0r	2a/]	0r
1f	.	2f/	.
.	.	2.g/	.
2e\	.	.	.
.	.	4e/	.
=15	=15	=15	=15
4d\	1r	4f/	0r
4c\	.	4e/	.
4B\	.	1a	.
4A\	.	.	.
1B	1d	.	.
.	.	2g#i/	.
=16	=16	=16	=16
1A	2e\	0a	0r
.	1c	.	.
2r	.	.	.
2A\	[2f\	.	.
=17	=17	=17	=17
2F\	4f\]	0r	0r
.	4e\	.	.
1B-i	4d\	.	.
.	4c\	.	.
.	4d\	.	.
.	4c\	.	.
2A\	[2e\	.	.
=18	=18	=18	=18
2G\	2e\]	2r	0r
2F\	2.d\	2a/	.
1E	.	2.g/	.
.	4c#i\	.	.
.	2c#i\	.	.
.	.	4e/	.
=19	=19	=19	=19
1D	[0d	4f/	1a
.	.	4g/	.
.	.	4a/	.
.	.	4f/	.
2G\	.	2b-i\	2g/
2D\	.	[2a/	2f/
=20	=20	=20	=20
1G	0d]	2a/]	2.g/
.	.	1g	.
.	.	.	4b-i\
1D	.	.	1a
.	.	2f/	.
=21	=21	=21	=21
2G\	0r	2g/	2g/
4F\	.	1a	2.cc\
4E\	.	.	.
2F\	.	.	.
.	.	.	4b\
2G\	.	2g/	2b\
=22	=22	=22	=22
1A	0r	4f/	2cc\
.	.	4e/	.
.	.	2f/	2a/
1G	.	1g	1b
=23	=23	=23	=23
2r	0d	2r	2r
2.G\	.	1g	2.b\
4A\	.	.	4cc\
2B\	.	2g/	4dd\
.	.	.	4b\
=24	=24	=24	=24
2A\	0e	2c/	2cc\
2G\	.	2.g/	1b
[1E	.	.	.
.	.	4a/	.
.	.	2b\	[2ee\
=25	=25	=25	=25
1E]	1e	1g	4ee\]
.	.	.	4ff\
.	.	.	4gg\
.	.	.	4ee\
2r	2r	2a/	2ff\
[2c\	[2e\	[2g/	[2ee\
=26	=26	=26	=26
2c\]	4e\]	2g/]	2ee\]
.	4f\	.	.
2c\	4g\	2cc\	2ee\
.	4e\	.	.
2d\	2f\	2b\	2dd\
[2c\	[2e\	2cc\	[2ee\
=27	=27	=27	=27
2c\]	2e\]	2.a/	2ee\]
2A\	1a	.	4dd\
.	.	4g/	4cc\
1B-i	.	4f/	1dd
.	.	4e/	.
.	2g\	2d/	.
=28	=28	=28	=28
1A	2f\	2r	2r
.	1e	2a/	2cc\
1B-i	.	2f/	2dd\
.	2d\	2g/	2b-i\
=29	=29	=29	=29
0A	2f\	1a	2.cc\
.	2.e\	.	.
.	.	.	4dd\
.	.	2a/	2ee\
.	4d\	.	.
.	4c\	[2a/	[2ff\
.	4B\	.	.
=30	=30	=30	=30
2F\	2A/	2a/]	2ff\]
2G\	1d	1g	2dd\
1E	.	.	2ee\
.	2c#i\	2e/	[2gg\
=31	=31	=31	=31
0D	0d	2.f/	4gg\]
.	.	.	4ff\
.	.	.	1ff
.	.	4g/	.
.	.	1a	.
.	.	.	[2dd\
=32	=32	=32	=32
1D	2r	1d	2dd\]
.	1f	.	4cc\
.	.	.	4b\
1A	.	2r	1cc
.	2e\	2e/	.
=33	=33	=33	=33
[0Al	2.a\	2.f/	[0ccl
.	4g\	4g/	.
.	2f\	[1al	.
.	4e\	.	.
.	4d\	.	.
=34	=34	=34	=34
0A]	0el	0a]	0cc]
!!LO:LB:i:g=z
=35||	=35||	=35||	=35||
*>B	*>B	*>B	*>B
*clefF4	*clefGv2	*clefG2	*clefG2
*k[]	*k[]	*k[]	*k[]
*M2/1	*M2/1	*M2/1	*M2/1
*met(C2)	*met(C2)	*met(C2)	*met(C2)
!!section: Christe
!!!OMD: Christe
0A	1e	0a	1.cc
.	2.f\	.	.
.	.	.	2a/
.	4e\	.	.
=36.	=36.	=36.	=36.
1A	2e\	0a	2cc\
.	1d	.	2dd\
1A	.	.	1ee
.	2c#i\	.	.
=37	=37	=37	=37
2.D\	[0d	2.f/	1ff
4E\	.	4g/	.
2F\	.	2a/	2ff\
2G\	.	2b-i\	[2dd\
=38.	=38.	=38.	=38.
2F\	0d]	2a/	4dd\]
.	.	.	4cc\
2G\	.	1g	2b\
1D	.	.	1a
.	.	2f#i/	.
=39	=39	=39	=39
[0G	1d	1.g	1.b
.	2.e\	.	.
.	.	2e/	2g/
.	4d\	.	.
=40.	=40.	=40.	=40.
0G]	2d\	2g/	2b\
.	1c	4f/	2cc\
.	.	4e/	.
.	.	1d	1dd
.	2B\	.	.
=41	=41	=41	=41
2r	0c	4c/	1ee
.	.	4d/	.
1c	.	4e/	.
.	.	4f/	.
.	.	2g/	2ee\
2A\	.	[2a/	[2cc\
=42.	=42.	=42.	=42.
2F\	2r	4a/]	2cc\]
.	.	4g/	.
2A\	2c\	1f	4b\
.	.	.	4a/
1G	2d\	.	1b
.	2B\	2e/	.
=43	=43	=43	=43
[0F	2c\	0f	0a
.	1d	.	.
.	2c\	.	.
=44.	=44.	=44.	=44.
0F]	2A/	1r	1r
.	1a	.	.
.	.	[1a	[1cc
.	[2f\	.	.
=45	=45	=45	=45
0A	2f\]	1a]	1cc]
.	4e\	.	.
.	4d\	.	.
.	1e	1a	1cc
=46.	=46.	=46.	=46.
2.B-i\	1d	2.f/	1dd
4A\	.	4g/	.
2F\	2d\	2a/	2a/
2G\	[2B\	[2d/	[2dd\
=47	=47	=47	=47
0D	2B\]	2d/]	2dd\]
.	4A/	2g/	4cc\
.	4G/	.	4b\
.	1A	4f/	2.a/
.	.	4e/	.
.	.	2f/	.
.	.	.	4b\
=48.	=48.	=48.	=48.
0r	0G	2g/	2b\
.	.	2.b-i\	1dd
.	.	4a/	.
.	.	[2g/	[2b\
=49	=49	=49	=49
0r	1r	2g/]	2b\]
.	.	4f#i/	4a/
.	.	4e/	4g/
.	1d	1f#i	1a
=50.	=50.	=50.	=50.
1G	2d\	1g	1g
.	1e	.	.
1A	.	1r	1r
.	[2c\	.	.
=51	=51	=51	=51
1F	2c\]	0r	0r
.	1A	.	.
1D	.	.	.
.	[2d\	.	.
=52.	=52.	=52.	=52.
1E	2d\]	0r	0r
.	2c\	.	.
1D	2d\	.	.
.	[2f\	.	.
=53	=53	=53	=53
2.A\	2f\]	0r	0r
.	2.e\	.	.
4B\	.	.	.
4c\	.	.	.
4A\	4c\	.	.
[2B\	[2d\	.	.
=54.	=54.	=54.	=54.
4B\]	4d\]	1r	0r
4A\	4c\	.	.
1G	2B\	.	.
.	1A	1a	.
2F#i\	.	.	.
=55	=55	=55	=55
1G	1G	1b	1dd
1r	1r	1g	1ee
=56.	=56.	=56.	=56.
0r	0r	1e	1cc
.	.	2r	1a
.	.	[2a/	.
=57	=57	=57	=57
0r	0r	2a/]	1b
.	.	2g/	.
.	.	2a/	1a
.	.	[2f/	.
=58.	=58.	=58.	=58.
0r	0r	2f/]	2r
.	.	4e/	1dd
.	.	4d/	.
.	.	1e	.
.	.	.	2cc\
=59	=59	=59	=59
0r	0r	1d	2.dd\
.	.	.	4dd\
.	.	1a	2ff\
.	.	.	[2ee\
=60.	=60.	=60.	=60.
0r	1r	2g/	2ee\]
.	.	1f	1dd
.	1d	.	.
.	.	2a/	2cc\
=61	=61	=61	=61
1G	1e	2g/	1b
.	.	2.e/	.
1A	1c	.	1a
.	.	4d/	.
.	.	4c/	.
.	.	4B/	.
=62.	=62.	=62.	=62.
1F	1A	1c	0r
1D	2r	1d	.
.	[2a\	.	.
=63	=63	=63	=63
2r	2a\]	0r	0r
1d	2f\	.	.
.	2d\	.	.
2B\	[2g\	.	.
=64.	=64.	=64.	=64.
2G\	2g\]	0r	1r
1c	4f\	.	.
.	4e\	.	.
.	1d	.	1dd
2B\	.	.	.
=65	=65	=65	=65
1c	1c	1g	1ee
1r	1r	1a	1cc
=66.	=66.	=66.	=66.
0r	0r	1f	2a/
.	.	.	2cc\
.	.	1d	2dd\
.	.	.	[2ff\
=67	=67	=67	=67
2.A\	2.c\	[0a	2ff\]
.	.	.	1ee
4B\	4d\	.	.
2c\	2e\	.	.
2d\	2f\	.	[2dd\
=68.	=68.	=68.	=68.
1A	1e	0a]	2dd\]
.	.	.	2cc\
1D	1d	.	1ff
=69	=69	=69	=69
0A	1c	0a	2.ee\
.	.	.	4dd\
.	[1e	.	4cc\
.	.	.	4b\
.	.	.	[2cc\
=70.	=70.	=70.	=70.
0E	1e]	1g	2cc\]
.	.	.	4b\
.	.	.	4a/
.	1e	1g	1b
=71	=71	=71	=71
0A	1e	2a/	[0al
.	.	4g/	.
.	.	4f/	.
.	1c	2e/	.
.	.	4f/	.
.	.	4e/	.
=72.	=72.	=72.	=72.
1F	2A/	1f	0a_
.	2c\	.	.
1D	2d\	2f/	.
.	[2f\	[2d/	.
=73	=73	=73	=73
1A	2f\]	2d/]	0a_
.	2e\	2c/	.
1D	1d	1f	.
=74.	=74.	=74.	=74.
0Al	0cl	0el	0a]
!!LO:LB:i:g=z
=75||	=75||	=75||	=75||
*>C	*>C	*>C	*>C
*clefF4	*clefGv2	*clefG2	*clefG2
*k[]	*k[]	*k[]	*k[]
*M3/1	*M3/1	*M3/1	*M3/1
*met(O|)	*met(O|)	*met(O|)	*met(O|)
!!section: Kyrie II
!!!OMD: Kyrie II
1d	0.r	1.f	1a
2d\	.	.	2a/
2c\	.	2e/	1cc
2A\	.	4c/	.
.	.	4d/	.
2c\	.	4e/	2cc\
.	.	4f/	.
=76	=76	=76	=76
2G\	1d	2g/	2b\
2F\	.	1a	1dd
1D	2d\	.	.
.	1f	4d/	4cc\
.	.	4e/	4b\
1d	.	4f/	1a
.	.	4g/	.
.	2f\	4a/	.
.	.	4f/	.
=77	=77	=77	=77
2r	2e\	2.g/	2g/
2.G\	1g	.	1dd
.	.	4f/	.
.	.	2.d/	.
4F\	.	.	.
2.D\	4f\	.	1ff
.	4e\	4e/	.
.	1d	4f/	.
4E\	.	4g/	.
4F\	.	[2a/	2ff\
4G\	.	.	.
=78	=78	=78	=78
2A\	1c	2a/]	2ee\
2E\	.	2g/	1gg
2G\	1r	2b\	.
2A\	.	1a	4ff\
.	.	.	4ee\
1B	1r	.	1dd
.	.	2g#i/	.
=79	=79	=79	=79
1.A	1e	1a	1cc
.	2e\	2a/	2cc\
2G\	1g	1b	2.ee\
1E	.	.	.
.	.	.	4ff\
.	2g\	2g/	4gg\
.	.	.	4ee\
=80	=80	=80	=80
1D	2f\	1a	2.ff\
.	1a	.	.
.	.	.	4ee\
1r	.	1r	4ee\
.	.	.	4dd\
.	4g\	.	1dd
.	4f\	.	.
2r	1e	2r	.
2A\	.	2a/	2cc#i\
=81	=81	=81	=81
2B-i\	0d	2f/	1dd
2.d\	.	2.b-i\	.
.	.	.	2r
4G\	.	4a/	.
2Bni\	.	1g	2b\
1A	1r	.	2cc\
.	.	2f#i/	4b\
.	.	.	4a/
=82	=82	=82	=82
2G\	1.d	1g	1b
2.B\	.	.	.
.	.	2r	2r
4G\	.	.	.
2B\	2B\	2g/	2dd\
1A	1c	2a/	2cc\
.	.	2f/	4b\
.	.	.	4a/
=83	=83	=83	=83
2.G\	2d\	1.g	2b\
.	1e	.	2g/
4E\	.	.	.
2G\	.	.	2b\
2A\	2c\	2e/	2cc\
1F	1d	1f	1a
=84	=84	=84	=84
2E\	2.e\	2r	1g
1e	.	2.g/	.
.	4f\	.	.
.	2g\	.	2r
.	.	4f/	.
2c\	2a\	2e/	2ee\
2d\	1f	1d	2.ff\
2B\	.	.	.
.	.	.	4dd\
=85	=85	=85	=85
2c\	0e	1c	4ee\
.	.	.	4ff\
2.e\	.	.	2.gg\
.	.	2g/	.
4d\	.	.	4ff\
2c\	.	1a	2ee\
1B	1r	.	1dd
.	.	2g#i/	.
=86	=86	=86	=86
1A	1e	1.a	1cc
1r	2e\	.	1r
.	1g	1b	.
1r	.	.	1r
.	2e\	2g/	.
=87	=87	=87	=87
2.d\	2f\	2a/	2r
.	4e\	2.b\	2dd\
4c\	4d\	.	.
2A\	1c	.	1ee
.	.	4a/	.
2c\	.	1a	.
1B-i	2r	.	2ff\
.	2d\	2g/	4ee\
.	.	.	4dd\
=88	=88	=88	=88
1A	1e	1a	2cc\
.	.	.	2.ee\
1D	2.f\	1r	.
.	.	.	4dd\
.	.	.	2dd\
.	4e\	.	.
1r	2c\	2r	2ee\
.	[2e\	2g/	[2gg\
=89	=89	=89	=89
1r	2e\]	1a	2gg\]
.	2d\	.	2ff\
2r	2e\	4g/	2ee\
.	.	4f/	.
2G\	1g	4e/	1ee
.	.	4d/	.
1A	.	1c	.
.	2f\	.	4dd\
.	.	.	4cc\
=90	=90	=90	=90
2.G\	0g	2d/	2.b\
.	.	2e/	.
4A\	.	.	4cc\
2B\	.	2d/	2dd\
2.c\	.	2c/	2.ee\
.	1g	1e	.
4d\	.	.	4ff\
2e\	.	.	2gg\
=91	=91	=91	=91
2f\	2.a\	2d/	2ff\
2c\	.	2e/	1ee
.	4g\	.	.
1d	2f\	2f/	.
.	4e\	2.a/	2.dd\
.	4d\	.	.
1A	1e	.	.
.	.	4g/	4cc#i\
.	.	4f/	2cc#i\
.	.	4e/	.
=92	=92	=92	=92
[0.Dl	[0.dl	4f/	[0.ddl
.	.	4e/	.
.	.	4d/	.
.	.	4c/	.
.	.	2B/	.
.	.	2A/	.
.	.	1a	.
=93	=93	=93	=93
0.D]	0.d]	0.al	0.dd]
==	==	==	==
*-	*-	*-	*-
!!!RDF**kern: l=long note in original notation
!!!RDF**kern: i=editorial accidental
!!!ENC:	Chris Gage 03-26-2013
!!!END:	2013/07/27/
!!!EED:	Jesse Rodin
!!!EEV:	2013/08/05/
!!!ONB:	Translated from MusicXML and edited on 2013/08/05/ by Craig Sapp
!!muse2ps: T^@{OPR}^u^@{ONM}{. }@{OTL}^C^@{COM}^i2I150v85,85,85,150Q8c90
